packages/icon/src/svg/desktop.icon.svg

<svg width="24" height="24" viewBox="0 0 24 24" fill="none" xmlns="http://www.w3.org/2000/svg">
<path fill-rule="evenodd" clip-rule="evenodd" d="M20.9978 3H3.00024C2.448 3 2.00024 3.44769 2.00024 4V17C2.00024 17.5523 2.448 18 3.00024 18H11V20H7.49988C7.22375 20 6.99988 20.2239 6.99988 20.5V21.5C6.99988 21.7761 7.22375 22 7.49988 22H16.4982C16.7743 22 16.9982 21.7761 16.9982 21.5V20.5C16.9982 20.2239 16.7743 20 16.4982 20H13V18H20.9978C21.55 18 21.9978 17.5523 21.9978 17V4C21.9978 3.44769 21.55 3 20.9978 3ZM4 5V16H20L19.998 5H4Z" fill="white"/>
</svg>

<svg aria-label="desktop icon" viewBox="0 0 24 24"><path fill-rule="evenodd" clip-rule="evenodd" d="M20.998 3H3a1 1 0 00-1 1v13a1 1 0 001 1h8v2H7.5a.5.5 0 00-.5.5v1a.5.5 0 00.5.5h8.998a.5.5 0 00.5-.5v-1a.5.5 0 00-.5-.5H13v-2h7.998a1 1 0 001-1V4a1 1 0 00-1-1zM4 5v11h16l-.002-11H4z"/></svg>
